data/icons/scalable/actions/cine-view-fullscreen-symbolic.svg

<?xml version="1.0" encoding="UTF-8"?>
<svg width="16" height="16" gpa:keywords="view-fullscreen window arrows" gpa:state="0" gpa:version="1" xmlns="http://www.w3.org/2000/svg" xmlns:gpa="https://www.gtk.org/grappa">
 <style type="text/css">.not-initial-state {
      display: none;
    }</style>
 <path id="path0" class="foreground-stroke transparent-fill" d="m10 1h5v5m-5 0 5-5m-14 9v5h5m0-5-5 5" fill="none" stroke="#000" stroke-linecap="round" stroke-linejoin="round" stroke-width="2"/>
</svg>

<?xml version='1.0' encoding='utf-8'?>
<svg xmlns="http://www.w3.org/2000/svg" xmlns:cc="http://creativecommons.org/ns#" xmlns:dc="http://purl.org/dc/elements/1.1/" xmlns:gpa="https://www.gtk.org/grappa" xmlns:rdf="http://www.w3.org/1999/02/22-rdf-syntax-ns#" width="16" height="16" gpa:version="1" gpa:state="0" gpa:state-names="outline empty">
<path d="M 10 1 L 15 1 L 15 6 M 10 6 L 15 1 M 1 10 L 1 15 L 6 15 M 6 10 L 1 15" id="path0" stroke-width="2" stroke-linecap="round" stroke-linejoin="round" stroke="rgb(0,0,0)" fill="none" class="foreground-stroke transparent-fill" gpa:states="outline" gpa:stroke="foreground" gpa:stroke-minwidth="25%" gpa:stroke-maxwidth="150%" >
    </path>
  <metadata>
    <rdf:RDF>
      <cc:Work>
        <cc:license rdf:resource="https://creativecommons.org/publicdomain/zero/1.0/" />
        <dc:subject>
          <rdf:Bag>
            <rdf:li>view-fullscreen window arrows</rdf:li>
          </rdf:Bag>
        </dc:subject>
        <dc:creator>
          <cc:Agent>
            <dc:title>Jakub Steiner</dc:title>
          </cc:Agent>
        </dc:creator>
      </cc:Work>
    </rdf:RDF>
  </metadata>
</svg>
